X: 147
T: Tell Her
C: Teton Sioux band 1911-1914
N: Derived from sioux143.krn
O: South Dakota, U.S.A.
N: Teton Sioux Music by Frances Densmore, 1918
Z: transcribed to **kern format by Craig Sapp
L: 1/8
M: 3/4
Q: 1/4=58
K: C clef=bass
%%linebreak <none>
E2>C2C2 [I:setbarnb 1]||  
[M:2/4]E2C2 ||  
[M:3/4]E2>C2C2 ||  
[M:2/4]C2A,2 ||  
[M:3/4]C2C2A,/ A,3/ ||  
[M:2/4]C2A,2 ||  
[M:3/4]C> DC2A,/ A,3/ ||  
[M:2/4]A,2E,2 | 
A, A,A,2- | 
A,2G,2 | 
A,< G, G,/ G,3/ | 
G, E,E,2 | 
A, G,A,2- | 
A,2G,2 | 
A,< G, G, E, ||  
[M:3/4]F,< E, C, C,A,,2 ||  
[M:2/4]C, C,E,2 | 
C, C, A,, A,, | 
A,,4 | 
A,,4 ||  
[M:3/4]A, A, A,< C A, A, ||  
[M:2/4](C2A,2) ||  
[M:3/4]C> DC2A,/ A,3/ ||  
[M:2/4]A,2E,2 ||  
[M:3/4]A,2A,2A, G, ||  
[M:2/4]A,< G, G,/ G,3/ | 
G, E,E,2 | 
A, G,F,2- | 
F,2G,2 | 
A,< F, F, E, ||  
[M:3/4]F,< E, C, C,A,,2 ||  
[M:2/4]C, C,E,2 | 
C, C, A,, A,, | 
A,,4 | 
A,,4 |]  



